X: 29792
T: O'Byrne's
R: hornpipe
M: 4/4
K: Gmajor
Bc|~d2Bd edBG|A2EA AGfe|d2dB cDEF|GBAF GDBD|
GDEF GBdB|cBAG FGA2|dgfe dBDF|AGGF G2:|

